!!!OTL: 285. Sei vergnuegt und sorge nicht! / Abweichende Melodie.
!!!ODT: 1889
!!!ARE: Europa, Mitteleuropa, Deutschland; France, Elsass, Weissenburg
!!!SCT: B0285A
!!!TXL: @@DE
!!!YEM: Copyright 1995, estate of Helmut Schaffrath.
**kern	**text
*ICvox	*
*Ivox	*
*clefG2	*
*M3/4	*
*k[f#c#]	*
*D:	*
!LO:TX:a:t=Lebhaft.	!
{8dL	Ein
8f#J	.
=1	=1
2a	Herʒ,
4a	das
=2	=2
(4a	ſich
4b)}	.
{8aL	mit
8gJ	.
=3	=3
(4.f#	Sor-
8e)	.
4d	-gen
=4	=4
(4d	quält,
4e)}	.
{8f#L	hat
8aJ	.
=5	=5
2g	we-
4g	-nig
=6	=6
(4f#	fro-
4a)}	.
{4f#	-he
=7	=7
4f#	Stunden;
4e;}	.
{8dL	es
8f#J	.
=8	=8
2a	hat
4a	ſein
=9	=9
(4a	Theil
4b)}	.
{8aL	ſchon
8gJ	.
=10	=10
(4.f#	hier
8e)	.
4d	er-
=11	=11
(4d	-wählt,
4e)}	.
{8f#L	die
8aJ	.
=12	=12
2g	Hoff-
4g	-nung
=13	=13
(4f#	iſt
4a)}	.
{4f#	verſchwunden.
=14	=14
4f#	.
4e;}	.
{4a	Nur
=15	=15
(4g#	glück-
4e)	.
4e	-lich
=16	=16
(4a	iſt,
4cc#)}	.
{4ee	wer
=17	=17
(4dd	das
4cc#)	.
4b	ver-
=18	=18
2a	-gißt,
4r}	.
=19	=19
{4f#	was
4f#	ein-
4f#	-mal
=20	=20
(4a	nicht,
4g)	.
4r}	.
=21	=21
{4e	was
4f#	ein-
4g	-mal
=22	=22
(<4b	nicht,
4a)	.
4r}	.
=23	=23
{4f#	was
4f#	ein-
4f#	-mal
=24	=24
(<4g	nicht
4b)}	.
{8ddL	ʒu
8bJ	.
=25	=25
(<4a	än-
4b)	.
4cc#	-dern
=26	=26
4dd	iſt!
4r}	.
==	==
!!!AGN: Stimmungs - Lied, Freude
!!!GTL: Lieder der Freude und Geseligkeit
!!!ONB: ESAC (Essen Associative Code) Database: BOEHME
!!!AMT: simple triple
!!!AIN: vox
!!!EED: Helmut Schaffrath
!!!EEV: 1.0
!!!RDF**kern: < = below
!!Aus dem Elsass (Kr. Weissenburg.) 1889.
!!!URL-scan: https://archive.org/details/BoehmeVtLieder1895/page/n241/mode/2up
!!!ENC: Anna Maria Matuszewska
!!!EEV: 2024/03/07
*-	*-
